public/icons/windy.svg

<svg xmlns="http://www.w3.org/2000/svg" width="240" height="240" fill="none" xmlns:v="https://vecta.io/nano"><path fill-rule="evenodd" d="M181 108c21.539 0 39-17.461 39-39s-17.461-39-39-39-39 17.461-39 39a5 5 0 1 0 10 0c0-16.016 12.984-29 29-29s29 12.984 29 29-12.984 29-29 29c-.342 0-.677.034-1 .1-.323-.066-.658-.1-1-.1H25a5 5 0 1 0 0 10h154c.342 0 .677-.034 1-.1.323.066.658.1 1 .1zM20 123a5 5 0 0 0 5 5h117c12.703 0 23 10.297 23 23s-10.297 23-23 23a5 5 0 1 0 0 10c18.225 0 33-14.775 33-33 0-16.577-12.223-30.299-28.148-32.646A5 5 0 0 0 145 118h-3H25a5 5 0 0 0-5 5zm5 15a5 5 0 1 0 0 10h91a5 5 0 1 0 0-10H25z" fill="#fff"/></svg>

<svg width="240" height="240" viewBox="0 0 240 240" fill="none" xmlns="http://www.w3.org/2000/svg">
<path fill-rule="evenodd" clip-rule="evenodd" d="M181 108C202.539 108 220 90.5391 220 69C220 47.4609 202.539 30 181 30C159.461 30 142 47.4609 142 69C142 71.7614 144.239 74 147 74C149.761 74 152 71.7614 152 69C152 52.9837 164.984 40 181 40C197.016 40 210 52.9837 210 69C210 85.0163 197.016 98 181 98C180.658 98 180.323 98.0344 180 98.1C179.677 98.0344 179.342 98 179 98H25C22.2386 98 20 100.239 20 103C20 105.761 22.2386 108 25 108H179C179.342 108 179.677 107.966 180 107.9C180.323 107.966 180.658 108 181 108ZM20 123C20 125.761 22.2386 128 25 128H142C154.703 128 165 138.297 165 151C165 163.703 154.703 174 142 174C139.239 174 137 176.239 137 179C137 181.761 139.239 184 142 184C160.225 184 175 169.225 175 151C175 134.423 162.777 120.701 146.852 118.354C146.279 118.126 145.654 118 145 118H142H25C22.2386 118 20 120.239 20 123ZM25 138C22.2386 138 20 140.239 20 143C20 145.761 22.2386 148 25 148H116C118.761 148 121 145.761 121 143C121 140.239 118.761 138 116 138H25Z" fill="white"/>
</svg>
